X: 10215
T: Dismissal, The
R: reel
M: 4/4
K: Gmajor
G2 Bd edBd|bgab gedB|G2 Bd edBa|gedB A4|
G2 Bd edBd|bgab gedB|GABd egdc|1 BGAF G4:|2 BGAF G2 ef||
|:g2 fg efga|bgab gedB|G2 Bd edBa|
[1gedB A2 ef|g2 fg efga|bgab gedB|GABd egdc|BGAF G2 ef:|
[2gedB A4|G2 Bd edBd|bgab gedB|GABd egdc|BGAF G4||

